X:12
T:After the Battle of Aughrim
M:4/4
L:1/8
K:ADorian
"A Dorian" AG |: "Am"E2 A2 ABcd|e2 d2 c2 A2|"G"{Bc}B2 G2 {A}GFGA|BGAG E2 D2|
"Am"E2 A2 A2 ((3Bcd)|e2 ed e2 ag|"G"e2 d2 BedB|1 "Am" A4 A2 AG:|2 "Am" A6 e2||
|:"Am"a2 ag e2 ((3efg)|abag e2 ((3efg)|a2 {b}af "Em"g2 {a}ge|"G"dedB G4|
"Am"abag e2 ((3efg)|abag e2 d2|"Em"B2 e2 "G"d2 B2|1 "Am" A6 e2:|2 "Am"A6||
